@SIZE 1920 1080
@BACKGROUND 255 255 200
@POSITION 650 180
COLOR 0 0 0
DEF x 50
SIZE x


FUNC line ( )
	DEF c 0
	LOOP 127
		COLOR c c c
		ADD c 2
		MOVE 6
	END LOOP
END FUNC

FUNC square ()
LOOP 4
	CALL line ()
	CLOAK
	TURN 180
	MOVE x
	TURN -90
	MOVE x
END LOOP
END FUNC

CALL square()