@SIZE 1920 1080
@BACKGROUND 255 255 255
@POSITION 450 200

FUNC circle(step,num)
	LOOP num
		MOVE step
		TURN -1
	END LOOP
END FUNC
DEF x 330
SIZE 10
TURN 90
COLOR 103 148 190
CALL circle(4,360)
CLOAK
TURN -45
MOVE x
TURN 45
COLOR 240 201 84
CALL circle(4,360)
CLOAK
TURN 45
MOVE x
TURN -45
COLOR 27 28 30
CALL circle(4,360)
CLOAK
TURN -45
MOVE x
TURN 45
COLOR 113 193 124
CALL circle(4,360)
CLOAK
TURN 45
MOVE x
TURN -45
COLOR 172 16 40
CALL circle(4,360)

