@SIZE 3240 2160
@BACKGROUND 244 0 2
@POSITION 560 260
SIZE 1
FUNC star (step)
	LOOP 5
		COLOR 250 244 9
		MOVE step
     		TURN -288
     		MOVE step
     		TURN -144

	END LOOP

	CLOAK
	TURN -18
	MOVE step
	FILL 102 16 108
	TURN 180
	MOVE step
	TURN 180
	TURN 18
END FUNC

TURN 18

CALL star (236)
TURN 82
MOVE 480
TURN -30
CALL star (78)
TURN -18
MOVE 330
TURN -10
CALL star (78)
TURN -34
MOVE 340
TURN 12
CALL star (78)
TURN -56
MOVE 320
TURN 30
CALL star (78)
