@SIZE 2160 2160
@BACKGROUND 255 255 205
@POSITION 1050 780

SIZE 15

DEF c 235
DEF d  162
DEF e 129
DEF x 120
DEF y 600
COLOR   d e c


TURN 90
LOOP 30
	LOOP 12
		CLOAK	
		MOVE 4
		TURN -1
	END LOOP
	TURN 90
	COLOR c d e
	MOVE y
	TURN 60
	MOVE x
	CLOAK
	ADD c -4
	ADD d -2
	ADD e 5
	TURN 180
	MOVE x
	TURN -60
	MOVE y
	TURN 90
END LOOP

